X:1
T:A karádi faluvégen
C:Hungarian folk song
Z:Public Domain
L:1/4
M:4/4
K:C
V:1 treble nm="Voice"
%%MIDI program 52
V:1
 E E E D | E E E D | E F G/F/E/_E/ | E2 E2 | A D D E | E C C A, | G, G, C/B,/A,/_A,/ | A,2 A, z |] %8
w: A ka- rá- di|fa- lu- vé- gen,|sej- haj, lu- lu- lu- lu|lá- rom,|Le- ány- vá- sár|lesz a hé- ten,|sej- haj, lu- lu- lu- lu|lá- rom.-|

